X:1
T:Frühlingsahnung
T:Ludwig Uhland
T:Ludwig Uhland
T:Frühlingsahnung
T:CPDL   —   Creative Commons Attribution Non Commercial 3.0
T:CPDL   —   Creative Commons Attribution Non Commercial 3.0
T:CPDL   —   Creative Commons Attribution Non Commercial 3.0
C:Conradin Kreutzer
Z:Ludwig Uhland
Z:CPDL   —   Creative Commons Attribution Non Commercial 3.0
%%score [ ( 1 2 ) ( 3 4 ) ]
L:1/8
Q:1/4=66
M:3/8
K:E
V:1 treble-8 nm="Tenor"
V:2 treble-8 
V:3 bass nm="Bass"
V:4 bass 
V:1
"^Allegretto"!pp! e | e2 e |{ef} g>fe |"^ten." d3- | d z f | f2 f |{fg} a>gf | e3- | e z e | %9
w: O|sanf- ter,|sü- * ßer|Hauch!|_ o|sanf- ter,|sü- * ßer|Hauch!|_ Schon|
"^cresc." e>dc | fdd |!>(! e>d!>)!c | fd z |!mf!!<(! c2 z | d2!<)! z |!ff! e3 | g f/e/ d/c/ | %17
w: we- ckest du|wie- der mir|Früh- * lings-|lie- der,|bald,|bald,|bald|blü- hen * die *|
!>(! f2!>)! ^A | B2!>(! z | z!>)! z f | !>!f>gf/g/ | f>gf | B2!mf! z | z z!p!!p! f | !>!f>gf/g/ | %25
w: Veil- chen|auch,|bald|blü- * hen die|Veil- * chen|auch,|bald|blü- * hen die|
 !turn!f>gf |!>(! B3- | B!>)! z |!pp! f | f2 f | !turn!e>f g/e/ | d3- | d z B | B>=c!<(! B/c/!<)! | %34
w: Veil- * chen|auch.|_|O|sanf- ter,|sü- * ßer *|Hauch!|_ o|sanf- * ter, *|
 B/e<!>(!=ge/!>)! |!<(! d3-!<)! | d z!f! B | eee |!>(! f/e/!>)!e!p!c | !turn!c>=d c/B/ | B/A/A z | %41
w: sü- * * ßer|Hauch!|_ Schon|we- ckest du|wie- * der mir|Früh- * lings- *|lie- * der,|
!mf!!<(! d2 z!<)! | d2 z |!f! e3 |!>(! f f/e/ d/c/!>)! |!<(! (Beg!<)! |!>(! a2)!>)! d | e2!mf! z | %48
w: bald,|bald,|bald|blü- hen * die *|Veil- * *|* chen|auch,|
 z z!p! e | dBf | !turn!Bcd | e2!mf! z | z z e |!<(! (!turn!d>ef/g/!<)! |!>(! a2)!>)! d | e3 | %56
w: bald|blü- hen die|Veil- * chen|auch,|die|Veil- * * *|* chen|auch,|
 z z!pp! e | e2 e | e2 e |"^<    >" !fermata!e6 |] %60
w: o|sanf- ter,|sü- ßer|Hauch.|
V:2
 B | B2 B | B2 B | B3- | B x d | d2 d | d2 d | B3- | B x B | c>B^A | BBB | c>B^A | BB x | G2 x | %14
w: ||||||||||||||
 G2 x | G3 | Gce | d2 c | d2 d | dBd | ^A3- | A2 ^A | B2 d | dBd | ^A3- | A2 ^A | F3- | F x | B | %29
w: ||||* bald|blü- hen die|Veil-|* chen|auch, bald|blü- hen die|Veil-|* chen|auch,|_||
 B2 B | B2 B | B3- | B x B | B2 B | B^AA | B3- | B x B | B/=d/dd | ccc | B2 c | cc x | A2 x | %42
w: |||||||||||||
 A2 x | G3 | ccA | (G3 | F2) A | G2 B | BGB | A3- | A2 A | G2 B | BGB | (A2- A/G/ | F2) A | G3 | %56
w: |||||* bald|blü- hen die|Veil  \--|* chen|auch, bald|blü- hen die|Veil- * *|* chen|auch,|
 x x B | B2 c | B2 c | B6 |] %60
w: ||||
V:3
!pp! G, | G,2 G, | G,2 G, |"^ten." A,3- | A, z A, | A,2 A, | F,>G,A, | G,3- | G, z G, | %9
"^cresc." G,>F,F, | F,B,F, |!>(! G,>F,!>)!F, | F,B, z |!mf!!<(! G,2 z | F,2!<)! z |!ff! E,3 | %16
 E,E,G, |!>(! F,2!>)! E, | F,2!>(! F, | F,!>)!D,F, | E,3- | E,2 E, | D,2!mf! F, | F,D,!p!F, | %24
 E,3- | E,2 E, |!>(! D,3- | D,!>)! z |!pp! A, | A,2 A, | !turn!G,>A, B,/G,/ | F,3- | F, z A, | %33
 A,2!<(! A,!<)! |!>(! =G,2!>)! E, |!<(! F,3-!<)! | F, z!f! B, | B,B,B, |!>(! C!>)!C!p!A, | G,2 G, | %40
 G,/A,/A, z |!mf!!<(! F,2 z!<)! | F,2 z |!f! E,3 |!>(! E,E,E,!>)! |!<(! (E,3!<)! | %46
!>(! D,2)!>)! F, | E,2!mf! G, | G,E,!p!G, | F,3- |"^-" F,2 F, | E,2!mf! G, | G,E,G, | %53
!<(! (F,2- F,/E,/!<)! |!>(! D,2)!>)! F, | E,3 | z z!pp! G, | G,2 A, | G,2 A, | %59
"^<    >" !fermata!G,6 |] %60
V:4
 E, | E,2 E, | E,2 E, | F,3- | F, x B,, | B,,2 B,, | B,,2 B,, | E,3- | E, x C, | C,>D,E, | D,G,D, | %11
w: |||||||||||
 C,>D,E, | D,B,, x | E,2 x | ^B,,2 x | C,3 | C,C,E, | F,2 F,, | B,,2 B,, | B,,B,,B,, | B,,3- | %21
w: ||||||||||
 B,,2 B,, | B,,2 B,, | B,,B,,B,, | B,,3- | B,,2 B,, | B,,3- | B,, x | D, | D,2 D, | E,2 E, | %31
w: ||||||||||
 B,,3- | B,, x D, | D,2 D, | E,2 =C, | B,,2!f! B,, | B,B,A, | G,G,G, | A,A,,A, | ^E,C,E, | %40
w: ||||* Schon|we- ckest du,|we- ckest du|||
 ^E,/F,/F, x | B,,2 x | ^B,,2 x | C,3 | A,,A,,A,, | B,,3- | B,,2 B,, | E,2 z | z z E, | B,,D,B,, | %50
w: ||||||||bald|blü- hen die|
 B,,2 B,, | E,2 z | z z E, | B,,3- | B,,2 B,, | E,3 | x x E, | E,2 E, | E,2 E, | E,6 |] %60
w: Veil- chen|auch,|||||||||

